X:80
T:Miss Gasoy(?). WM.079
T:Mrs.Casey,aka. WM.079
M:6/8
L:1/8
Q:3/8=120
S:Wm.Mittell’s MS, New Romney,Kent,1799
R:.Jig
O:England
A:Kent
N:
H:Mrs.Casey is a fieldtown Morris tune and dance.Title definitely looks
H:like Gasoy in MS, maybe a joke.
Z:vmp.Chris Partington
W:Partly illegible dance instructions.Change sides.back again.lead down
W:the middle.up again.cast off.hands ???.bottom right? &?left?at to
K:C
“NB”d|c2A ABA|G2G GAG|A2A ABA|(f3e2)d|!
c2A ABA|G2G GAG|A2A ABA|c3e2:|!
|:G|c2de2f|g2ag2e|c2de2f|g3e3|!
a2fg2e|f2de2c|A2A ABA|”*”(f3e2):|
W:MS has e as leading note of A music and f3e2d as last bar of B music

